dist/svg/a-large-file.svg

<?xml version="1.0" encoding="UTF-8"?>
<svg width="20px" height="13px" viewBox="0 0 20 13" version="1.1" xmlns="http://www.w3.org/2000/svg" xmlns:xlink="http://www.w3.org/1999/xlink">
    <!-- Generator: Sketch 43.2 (39069) - http://www.bohemiancoding.com/sketch -->
    <title>Icon</title>
    <desc>Created with Sketch.</desc>
    <defs></defs>
    <g id="icon" stroke="none" stroke-width="1" fill="none" fill-rule="evenodd">
        <g id="Favicon" transform="translate(-8.000000, -24.000000)" fill-rule="nonzero">
            <g id="Icon" transform="translate(8.000000, 24.000000)">
                <g id="icecream" transform="translate(6.076840, 1.067641)" fill="#272727">
                    <path d="M7.844894,4.63561918 C7.844894,3.66499184 7.28006163,2.78779006 6.41569695,2.3791424 C6.35436414,1.05692117 5.25964484,0 3.922447,0 C2.58524916,0 1.49052986,1.05692117 1.42919705,2.3791424 C0.584801189,2.77994517 0,3.64074399 0,4.63561918 C0,5.66686616 0.629017865,6.55405235 1.52333578,6.93417313 L3.60223269,11.2103535 C3.66213915,11.3330191 3.78623111,11.4107549 3.92316017,11.4107549 C4.06008923,11.4107549 4.18418119,11.3330191 4.24408766,11.2103535 L6.32298457,6.93417313 C7.21730248,6.55405235 7.84632035,5.66686616 7.84632035,4.63561918 L7.844894,4.63561918 Z M5.34879136,6.41854964 L2.49610264,6.41854964 C1.51335137,6.41854964 0.713172182,5.61837045 0.713172182,4.63561918 C0.713172182,3.65286792 1.51335137,2.85268873 2.49610264,2.85268873 C2.70006988,2.85268873 2.90047126,2.88692099 3.09017506,2.95395918 C3.27559983,3.01957102 3.47956708,2.9225796 3.54517892,2.73644166 C3.61079076,2.55030372 3.51379934,2.34704965 3.3276614,2.28143781 C3.06093501,2.18729908 2.78065834,2.13951655 2.49538946,2.13951655 C2.38556095,2.13951655 2.27715878,2.14664827 2.17089612,2.16091171 C2.32850717,1.33791101 3.05309011,0.713172182 3.92173383,0.713172182 C4.90519827,0.713172182 5.70466428,1.5126382 5.70466428,2.49610264 C5.70466428,2.9354167 5.54348737,3.35761463 5.2503736,3.68496066 C5.11914992,3.83187413 5.13127385,4.05723654 5.27818732,4.18846022 C5.34593868,4.24907986 5.43151934,4.27903309 5.51567366,4.27903309 C5.61337824,4.27903309 5.71108283,4.23909545 5.78168688,4.15993334 C6.04342107,3.86753274 6.23027218,3.52021789 6.33082946,3.14794201 C6.82149192,3.47314853 7.13029548,4.02870966 7.13029548,4.63561918 C7.13029548,5.61837045 6.33082946,6.41854964 5.34736502,6.41854964 L5.34879136,6.41854964 Z" id="Shape"></path>
                </g>
                <g id="light" fill="#000000">
                    <path d="M19.2370378,3.77710586 L15.1629637,3.77710586 C14.8851859,3.77710586 14.7000008,4.01346949 14.7000008,4.36801495 C14.7000008,4.7225604 14.8851859,4.95892404 15.1629637,4.95892404 L19.2370378,4.95892404 C19.5148156,4.95892404 19.7000008,4.7225604 19.7000008,4.36801495 C19.7000008,4.01346949 19.4685193,3.77710586 19.2370378,3.77710586 Z" id="Shape"></path>
                    <path d="M5,4.36801495 C5,4.01346949 4.80952381,3.77710586 4.52380952,3.77710586 L0.476190476,3.77710586 C0.19047619,3.77710586 0,4.01346949 0,4.36801495 C0,4.7225604 0.19047619,4.95892404 0.476190476,4.95892404 L4.52380952,4.95892404 C4.76190476,4.95892404 5,4.7225604 5,4.36801495 Z" id="Shape"></path>
                    <path d="M14.5038593,2.70437859 C14.5554503,2.70437859 14.6586325,2.70437859 14.7102235,2.64528768 L17.702505,1.10892404 C17.9604603,0.990742222 18.0636424,0.636196767 17.9604603,0.340742222 C17.8572781,0.0452876763 17.5477318,-0.0728941419 17.2897765,0.0452876763 L14.297495,1.58165131 C14.0395397,1.69983313 13.9363576,2.05437859 14.0395397,2.34983313 C14.1427219,2.52710586 14.3490861,2.70437859 14.5038593,2.70437859 Z" id="Shape"></path>
                    <path d="M1.83591924,1.17981757 L4.82186803,2.63665911 C4.87163384,2.63665911 4.92139965,2.70000005 5.02093128,2.70000005 C5.21999453,2.70000005 5.41905779,2.57331817 5.4688236,2.31995443 C5.56835523,2.00324974 5.41905779,1.62320412 5.17022872,1.49652225 L2.18427993,0.039680703 C1.93545087,-0.0870011706 1.63685599,0.10302164 1.53732436,0.419726324 C1.43779273,0.673090071 1.53732436,1.05313569 1.83591924,1.17981757 Z" id="Shape"></path>
                    <path d="M18.0640804,7.46221916 L15.0781316,6.03877115 C14.8293025,5.91499306 14.5307076,6.10066019 14.431176,6.41010541 C14.3316444,6.71955063 14.4809418,7.0908849 14.7297709,7.21466299 L17.7157197,8.638111 C17.7654855,8.638111 17.8152513,8.70000005 17.9147829,8.70000005 C18.1138462,8.70000005 18.3129094,8.57622196 18.3626753,8.32866578 C18.4622069,7.95733152 18.3626753,7.58599725 18.0640804,7.46221916 Z" id="Shape"></path>
                    <path d="M5.46046026,6.34074222 C5.35727814,6.04528768 5.04773178,5.92710586 4.78977649,6.04528768 L1.79749504,7.58165131 C1.53953974,7.69983313 1.43635762,8.05437859 1.53953974,8.34983313 C1.64272186,8.58619677 1.79749504,8.70437859 2.00385928,8.70437859 C2.05545033,8.70437859 2.15863245,8.70437859 2.21022351,8.64528768 L5.20250496,7.10892404 C5.46046026,6.99074222 5.56364238,6.63619677 5.46046026,6.34074222 Z" id="Shape"></path>
                </g>
            </g>
        </g>
    </g>
</svg>

<svg width="20" height="13" xmlns="http://www.w3.org/2000/svg"><g fill-rule="nonzero" fill="none"><path d="M13.922 5.703a2.5 2.5 0 00-1.43-2.256A2.5 2.5 0 0010 1.067a2.5 2.5 0 00-2.493 2.38 2.5 2.5 0 00-1.43 2.256A2.5 2.5 0 007.6 8.002l2.08 4.276a.357.357 0 00.64 0l2.08-4.276a2.5 2.5 0 001.523-2.299h-.001zm-2.496 1.783H8.573c-.983 0-1.783-.8-1.783-1.783a1.785 1.785 0 012.377-1.681.356.356 0 10.238-.673 2.495 2.495 0 00-1.157-.12 1.786 1.786 0 011.75-1.448 1.784 1.784 0 011.33 2.972.356.356 0 10.53.475c.262-.293.45-.64.55-1.012.49.325.8.88.8 1.487 0 .983-.8 1.783-1.784 1.783h.002z" fill="#272727"/><g fill="#000"><path d="M19.237 3.777h-4.074c-.278 0-.463.236-.463.591s.185.59.463.59h4.074c.278 0 .463-.235.463-.59s-.231-.59-.463-.59zM5 4.368c0-.355-.19-.59-.476-.59H.476c-.286 0-.476.235-.476.59s.19.59.476.59h4.048c.238 0 .476-.235.476-.59zM14.504 2.704c.051 0 .155 0 .206-.059l2.993-1.536c.257-.118.36-.473.257-.768a.489.489 0 00-.67-.296l-2.993 1.537c-.257.118-.36.472-.257.768.103.177.31.354.464.354zM1.836 1.18l2.986 1.457c.05 0 .1.063.199.063a.45.45 0 00.448-.38c.1-.317-.05-.697-.299-.823L2.184.04c-.249-.127-.547.063-.647.38-.1.253 0 .633.299.76zM18.064 7.462L15.078 6.04c-.249-.124-.547.062-.647.371-.1.31.05.68.299.805l2.986 1.423c.05 0 .1.062.199.062.199 0 .398-.124.448-.371.1-.372 0-.743-.299-.867zM5.46 6.34c-.103-.295-.412-.413-.67-.295L1.797 7.582c-.257.118-.36.472-.257.768.103.236.257.354.464.354.051 0 .155 0 .206-.059L5.203 7.11c.257-.118.36-.473.257-.768z"/></g></g></svg>
